arcticons-dark/symbolic/apps/opera-symbolic.svg

<?xml version="1.0" encoding="UTF-8" standalone="no"?>
<svg
   id="b"
   viewBox="0 0 48 48"
   version="1.1"
   sodipodi:docname="opera.svg"
   xmlns:inkscape="http://www.inkscape.org/namespaces/inkscape"
   xmlns:sodipodi="http://sodipodi.sourceforge.net/DTD/sodipodi-0.dtd"
   xmlns="http://www.w3.org/2000/svg"
   xmlns:svg="http://www.w3.org/2000/svg">
  <sodipodi:namedview
     id="namedview2"
     pagecolor="#ffffff"
     bordercolor="#666666"
     borderopacity="1.0"
     inkscape:showpageshadow="2"
     inkscape:pageopacity="0.0"
     inkscape:pagecheckerboard="0"
     inkscape:deskcolor="#d1d1d1" />
  <defs
     id="defs1">
    <style
       id="style1">.c{fill:none;stroke:#fff;stroke-width:2px;stroke-linecap:round;stroke-linejoin:round;}</style>
  </defs>
  <path
     style="color:#000000;fill:#ffffff;stroke-linecap:round;stroke-linejoin:round;-inkscape-stroke:none"
     d="M 24,1.5 C 11.584999,1.4998954 1.5,11.58561 1.5,24 1.5,36.053861 11.005471,45.913287 22.927734,46.472656 23.279895,46.489243 23.637864,46.5 24,46.5 c 5.698886,0 10.904033,-2.135851 14.869141,-5.632813 0.0037,-0.0024 0.0081,-0.0034 0.01172,-0.0059 l -0.002,-0.002 c 0.03588,-0.03168 0.07956,-0.05403 0.115235,-0.08594 a 1.0001,1.0001 0 0 0 -1.21875,-1.578125 c -2.368211,1.570569 -5.117863,2.464844 -8.064454,2.464844 -4.789144,0 -9.079432,-2.366694 -11.996093,-6.154297 l 0.197265,0.583985 A 1.0001,1.0001 0 0 0 17.685547,35.46875 C 15.485419,32.871586 14.001106,28.93246 13.900391,24.484375 v -0.96875 C 14.00053,19.06762 15.484754,15.129099 17.685547,12.53125 a 1.0001,1.0001 0 0 0 0.0293,-0.03711 c 2.915973,-3.787919 7.207416,-6.1542973 11.996093,-6.1542973 2.94542,0 5.694629,0.8953573 8.0625,2.4667969 a 1.0001,1.0001 0 0 0 1.220704,-1.578125 c -0.03567,-0.031916 -0.07936,-0.054246 -0.115235,-0.085937 l 0.002,-0.00195 c -0.0036,-0.00242 -0.0081,-0.00344 -0.01172,-0.00586 C 34.925051,3.6542939 29.750765,1.5224527 24.083984,1.5019531 h -0.06445 A 1.0001,1.0001 0 0 0 24,1.5 Z m -0.0039,2 0.06445,0.00195 a 1.0001,1.0001 0 0 0 0.01563,0 c 1.918792,0.00694 3.739957,0.3565946 5.498047,0.8554688 -5.384012,0.046221 -10.202471,2.7212485 -13.425782,6.8964841 -2.546628,3.014007 -4.138762,7.362616 -4.248046,12.216797 a 1.0001,1.0001 0 0 0 0,0.02344 v 1.011718 a 1.0001,1.0001 0 0 0 0,0.02344 c 0.109539,4.837836 1.693434,9.171274 4.224609,12.183594 a 1.0001,1.0001 0 0 0 0.0059,0.01367 c 0.0054,0.007 0.01217,0.01253 0.01758,0.01953 0.0041,0.0048 0.0076,0.01078 0.01172,0.01563 l -0.002,-0.0078 c 3.223383,4.168401 8.034607,6.841833 13.414063,6.888672 C 27.791106,44.147988 25.945597,44.5 24,44.5 c -0.324463,0 -0.649324,-0.01 -0.976563,-0.02539 a 1.0001,1.0001 0 0 0 -0.002,0 C 12.146571,43.96438 3.5,35.004115 3.5,24 3.5,12.667738 12.66375,3.5020474 23.996094,3.5 Z"
     id="path1" />
  <path
     style="color:#000000;fill:#ffffff;stroke-linecap:round;stroke-linejoin:round;-inkscape-stroke:none"
     d="m 29.710937,4.3398437 c -5.406317,0 -10.240478,2.6782169 -13.492187,6.8417973 l 0.0059,0.0039 c -0.01096,0.01277 -0.02619,0.01843 -0.03711,0.03125 -0.01684,0.02167 -0.03989,0.03684 -0.05664,0.05859 a 1.0001,1.0001 0 0 0 1.498047,1.316406 1.0001,1.0001 0 0 0 0.05664,-0.06055 c 1.825931,-2.155681 4.09505,-3.3789062 6.542969,-3.3789062 2.750691,0 5.288404,1.5502972 7.199218,4.2226562 1.910815,2.672359 3.132813,6.441853 3.132813,10.625 0,4.183189 -1.222021,7.952649 -3.132813,10.625 -1.910792,2.672351 -4.449252,4.224609 -7.201172,4.224609 -2.446798,0 -4.715615,-1.223214 -6.541015,-3.378906 a 1.0001,1.0001 0 0 0 -1.554688,1.255859 c 0.0094,0.01217 0.02185,0.02106 0.03125,0.0332 l -0.002,0.002 c 0.0053,0.0062 0.0123,0.0094 0.01758,0.01563 3.251977,4.191907 8.108582,6.882812 13.535157,6.882812 3.353476,0 6.495883,-1.026627 9.167968,-2.798828 a 1.0001,1.0001 0 0 0 0.113282,-0.08789 C 43.599189,36.655102 46.5,30.659649 46.5,24 46.5,17.340351 43.599206,11.34714 38.996094,7.2285156 A 1.0001,1.0001 0 0 0 38.882812,7.140625 C 36.209724,5.367472 33.064647,4.3398437 29.710937,4.3398437 Z m 0,2 c 2.923966,0 5.650858,0.8920329 8.007813,2.4414063 C 41.878929,12.534241 44.5,17.950665 44.5,24 c 0,6.050321 -2.620596,11.470268 -6.783203,15.222656 -2.35576,1.54832 -5.079724,2.4375 -8.003906,2.4375 -1.670896,0 -3.245423,-0.37806 -4.757813,-0.914062 3.204286,-0.260404 6.065304,-2.11194 8.099609,-4.957032 2.190754,-3.063893 3.50586,-7.21946 3.50586,-11.789062 0,-4.569644 -1.315128,-8.723274 -3.50586,-11.787109 C 31.020403,9.3678536 28.160491,7.516263 24.957031,7.2558594 26.468927,6.7200431 28.040749,6.3398438 29.710937,6.3398437 Z"
     id="path2" />
</svg>

<?xml version="1.0" encoding="UTF-8"?>
<svg id="b" version="1.1" viewBox="0 0 48 48" xmlns="http://www.w3.org/2000/svg">
 <defs id="defs4">
  <style id="style2">.c{fill:none;stroke:#fff;stroke-width:2px;stroke-linecap:round;stroke-linejoin:round;}</style>
 </defs>
 <path id="path6" d="m24 1.5c-12.415-1.046e-4 -22.5 10.086-22.5 22.5 0 12.054 9.5055 21.913 21.428 22.473 0.35216 0.016587 0.71013 0.027344 1.0723 0.027344 5.6989 0 10.904-2.1359 14.869-5.6328 0.0037-0.0024 0.0081-0.0034 0.01172-0.0059l-2e-3 -2e-3c0.03588-0.03168 0.07956-0.05403 0.11524-0.08594a1.0001 1.0001 0 0 0-1.2188-1.5781c-2.3682 1.5706-5.1179 2.4648-8.0645 2.4648-4.7891 0-9.0794-2.3667-11.996-6.1543l0.19726 0.58398a1.0001 1.0001 0 0 0-0.22652-0.621c-2.2001-2.5972-3.6844-6.5363-3.7852-10.984v-0.96875c0.10014-4.448 1.5844-8.3865 3.7852-10.984a1.0001 1.0001 0 0 0 0.0293-0.03711c2.916-3.7879 7.2074-6.1543 11.996-6.1543 2.9454 0 5.6946 0.89536 8.0625 2.4668a1.0001 1.0001 0 0 0 1.2207-1.5781c-0.03567-0.031916-0.07936-0.054246-0.11524-0.085937l2e-3 -0.00195c-0.0036-0.00242-0.0081-0.00344-0.01172-0.00586-3.9441-3.4805-9.1184-5.6123-14.785-5.6328h-0.06445a1.0001 1.0001 0 0 0-0.019534-0.0019531zm-0.0039 2 0.06445 0.00195a1.0001 1.0001 0 0 0 0.01563 0c1.9188 0.00694 3.74 0.35659 5.498 0.85547-5.384 0.046221-10.202 2.7212-13.426 6.8965-2.5466 3.014-4.1388 7.3626-4.248 12.217a1.0001 1.0001 0 0 0 0 0.02344v1.0117a1.0001 1.0001 0 0 0 0 0.02344c0.10954 4.8378 1.6934 9.1713 4.2246 12.184a1.0001 1.0001 0 0 0 0.0059 0.01367c0.0054 7e-3 0.01217 0.01253 0.01758 0.01953 0.0041 0.0048 0.0076 0.01078 0.01172 0.01563l-2e-3 -0.0078c3.2234 4.1684 8.0346 6.8418 13.414 6.8887-1.7812 0.50539-3.6267 0.85741-5.5723 0.85741-0.32446 0-0.64932-0.01-0.97656-0.02539a1.0001 1.0001 0 0 0-2e-3 0c-10.875-0.51023-19.521-9.4705-19.521-20.475 0-11.332 9.1638-20.498 20.496-20.5z" color="#000000" fill="#fff" stroke-linecap="round" stroke-linejoin="round" style="-inkscape-stroke:none"/>
 <path id="path8" d="m29.711 4.3398c-5.4063 0-10.24 2.6782-13.492 6.8418l0.0059 0.0039c-0.01096 0.01277-0.02619 0.01843-0.03711 0.03125-0.01684 0.02167-0.03989 0.03684-0.05664 0.05859a1.0001 1.0001 0 0 0 1.498 1.3164 1.0001 1.0001 0 0 0 0.05664-0.06055c1.8259-2.1557 4.095-3.3789 6.543-3.3789 2.7507 0 5.2884 1.5503 7.1992 4.2227 1.9108 2.6724 3.1328 6.4419 3.1328 10.625 0 4.1832-1.222 7.9526-3.1328 10.625s-4.4493 4.2246-7.2012 4.2246c-2.4468 0-4.7156-1.2232-6.541-3.3789a1.0001 1.0001 0 0 0-1.5547 1.2559c0.0094 0.01217 0.02185 0.02106 0.03125 0.0332l-2e-3 2e-3c0.0053 0.0062 0.0123 0.0094 0.01758 0.01563 3.252 4.1919 8.1086 6.8828 13.535 6.8828 3.3535 0 6.4959-1.0266 9.168-2.7988a1.0001 1.0001 0 0 0 0.11328-0.08789c4.6051-4.1184 7.5059-10.114 7.5059-16.773s-2.9008-12.653-7.5039-16.771a1.0001 1.0001 0 0 0-0.11328-0.087891c-2.6731-1.7732-5.8182-2.8008-9.1719-2.8008zm0 2c2.924 0 5.6509 0.89203 8.0078 2.4414 4.1602 3.753 6.7812 9.1694 6.7812 15.219 0 6.0503-2.6206 11.47-6.7832 15.223-2.3558 1.5483-5.0797 2.4375-8.0039 2.4375-1.6709 0-3.2454-0.37806-4.7578-0.91406 3.2043-0.2604 6.0653-2.1119 8.0996-4.957 2.1908-3.0639 3.5059-7.2195 3.5059-11.789 0-4.5696-1.3151-8.7233-3.5059-11.787-2.0343-2.845-4.8942-4.6966-8.0977-4.957 1.5119-0.53582 3.0837-0.91602 4.7539-0.91602z" color="#000000" fill="#fff" stroke-linecap="round" stroke-linejoin="round" style="-inkscape-stroke:none"/>
</svg>
